X:1
T:Title
%%score { ( 1 4 ) | ( 2 3 ) }
L:1/8
M:3/4
K:Ab
V:1 treble nm="Grand Piano"
V:4 treble 
V:2 bass 
V:3 bass 
V:1
 z2 z2 [CE]2 | [CE]2 [Ec]2 [DB]2 | [CA]4 [A,CE]2 | [A,CE]2 [A,C]2 [_CF]2 | [CE]4 [CA]2 | B3 c d2 | %6
 e2 d2 B2 | d6 |[M:2/4] c4 |[M:1/4] [CE]2 |[M:3/4] C2- [CA]2 [Ec]2 | [Ee]4 [Ee]2 | e2 d2 [FB]2 | %13
 [DF]4 [Fd]2 | [Ec]3 B A2 | E2 A2 c2 | B6 |[M:2/4] [CA]4 |[M:1/4] [CE]2 |[M:3/4] E d3 c2 | B4 E2 | %21
 [CE] [Ec]3 [DB]2 | [CA]4 [CE]2 | [DF]4 [EF]2 | [DF]2 d2 B2 | A6 |[M:2/4] G4 |[M:1/4] E2 | %28
[M:3/4] E e3 e2 | e4 c2 | B2 A2 G2 | F4 F2 | E2 A2 c2 | e2 d2 G2 | B6 |[M:2/4] [CA]4 |] %36
V:2
 z2 z2 [A,,A,]2 | [A,,A,]4 [A,,E,]2 | [A,,E,]4 A,,2 | z2 E,2 [A,,=D,]2 | [A,,E,]4 [A,,E,]2 | %5
 [E,E]3- [E,A,E] [E,B,E]2 | [E,B,]4 [E,G,E]2 | [A,F]6 |[M:2/4] [A,E]4 |[M:1/4][K:bass] [A,,A,]2 | %10
[M:3/4] [A,,A,]4 [A,,A,]2 | [A,,C]4 [A,,C]2 | [D,A,]4 [D,A,]2 | [D,A,]4 [B,,B,]2 | %14
 z2 z D [E,A,C]2 | [E,A,C]4 [E,A,E]2 | [E,G,D]6 |[M:2/4] [A,,E,]4 |[M:1/4] [A,,A,]2 | %19
[M:3/4] E,- [E,B,E]3 [E,A,E]2 | [E,G,E]4 [E,G,D]2 | [A,,A,]4 [A,,E,]2 | [A,,E,]4 [A,,A,]2 | %23
 [D,A,]4 [C,=A,]2 | z2 F2 [D,F,D]2 | [E,C]6 |[M:2/4] [E,B,]4 |[M:1/4][K:treble] [G,B,D]2 | %28
[M:3/4] C [CE]3 [A,CE]2 | [A,CE]4[K:bass] [A,E]2 | [D,A,]4 [D,A,E]2 | [D,A,D]4 [=D,A,_C]2 | %32
 [E,A,C]4 [E,A,E]2 | [E,G,E]4 [E,B,D]2 | [E,G,D]6 |[M:2/4] [A,,E,A,]4 |] %36
V:3
 x6 | x6 | x6 | A,,4 z2 | x6 | G,4 z2 | x6 | x6 |[M:2/4] x4 |[M:1/4][K:bass] x2 |[M:3/4] x6 | x6 | %12
 x6 | x6 | [E,A,]4 z2 | x6 | x6 |[M:2/4] x4 |[M:1/4] x2 |[M:3/4] .[G,B,]2 z2 z2 | x6 | x6 | x6 | %23
 x6 | [B,,B,]4 z2 | x6 |[M:2/4] x4 |[M:1/4][K:treble] x2 |[M:3/4] A,4 z2 | x4[K:bass] x2 | x6 | %31
 x6 | x6 | x6 | x6 |[M:2/4] x4 |] %36
V:4
 x6 | x6 | x6 | x6 | x6 | x6 | G4 z2 | x6 |[M:2/4] x4 |[M:1/4] x2 |[M:3/4] E2 z2 z2 | x6 | F4 z2 | %13
 x6 | x6 | x6 | x6 |[M:2/4] x4 |[M:1/4] x2 |[M:3/4] x6 | x6 | x6 | x6 | x6 | x6 | x6 |[M:2/4] x4 | %27
[M:1/4] x2 |[M:3/4] x6 | x6 | F4 z2 | x6 | x6 | x6 | x6 |[M:2/4] x4 |] %36

